X: 565
T:Pressed For Time
M:C|
L:1/8
R:Reel
C:Gordon Duncan
N:Via Rachel Marsh
N:Posted to the woodenflute mailing list, August 2002
Z:Steve Mansfield 10 August 2002
K:Hp
{g}G{d}AgG A{d}f{g}G{d}A | eG{d}Ae {g}G{d}AeA |
{g}GA{gAGAG}A2 {g}eA{d}cA | {g}GA{gAGAG}A2 {g}eA{d}cA |
{g}G{d}AgG A{d}f{g}G{d}A | eG{d}Ae {g}G{d}AeA |
{g}cA{gAGAG}A2 {g}eA{d}cA | {gAGAG}A2 {g}eA {g}dA{d}cA :|
|: {g}G3A {g}dA{d}cA | {g}GA{gAGAG}A2 {g}dA{d}cA |
{g}cd{e}d{c}d {g}ed{e}d{c}d | {g}ef{g}f{e}f a{g}a{g}af |
{g}eA{gAGAG}A2 {g}BA{g}eA | {gAGAG}A2{g}eA {g}dA{d}cA |
{g}GA {gAGAG}A2 {g}dA{d}cA | {gcecG}c2{g}ec {g}dB{d}cA :|
|: {gf}g3f {a}ge{A}ef | {a}gfga ge{A}eg | {g}ef{g}f{e}f {g}fe{gde}dc |
{g}cd{g}d{c}d {g}fe{g}df | {e}eA{gAGAG}A2 {g}BA{g}eA |
{gAGAG}A2{g}eA {g}dA{d}cA | {g}GA{gAGAG}A2 {g}dA{d}cA |
{gcecG}c2{g}ec {g}dB{d}cA :: {gf}g3f {a}ge{A}ef | {a}gfga ge{A}eg |
{a}ef{g}{e}f {g}fe{g}dc | {g}cd{g}d{c}d {g}fe{g}df |
{g}ea{g}ae (3a{g}a{g}aea | {g}ae(3a{g}a{g}a efge |
{g}ea{g}ag (3a{g}a{g}a{g}ag | aA{gAGAG}A2 {g}(3Bcd{g}ef :|

